tools/work/Papirus/devices/_TEMPLATE@48x48.SVG

<?xml version="1.0" encoding="UTF-8" standalone="no"?>
<svg xmlns="http://www.w3.org/2000/svg" height="48" width="48" version="1.1">
 <rect ry="2" rx="2" transform="matrix(0,-1,-1,0,0,0)" height="24" width="32" y="-36" x="-42" fill="#7e7e7e"/>
 <rect transform="matrix(0,-1,-1,0,0,0)" rx="2" ry="2" height="40" width="32" y="-44" x="-38" fill="#757575"/>
 <rect ry="0" rx="0" transform="matrix(0,-1,-1,0,0,0)" height="34" width="26" y="-41" x="-35" fill="#4d4d4d"/>
 <path opacity=".2" fill="#ffffff" d="m6 6c-1.108 0-2 0.892-2 2v1c0-1.108 0.892-2 2-2h36c1.108 0 2 0.892 2 2v-1c0-1.108-0.892-2-2-2h-36z"/>
 <path opacity=".2" d="m12 40v1c0 1.108 0.892 2 2 2h20c1.108 0 2-0.892 2-2v-1c0 1.108-0.892 2-2 2h-20c-1.108 0-2-0.892-2-2z"/>
 <path opacity=".2" d="m4 36v1c0 1.108 0.892 2 2 2h36c1.108 0 2-0.892 2-2v-1c0 1.108-0.892 2-2 2h-36c-1.108 0-2-0.892-2-2z"/>
</svg>

<svg xmlns="http://www.w3.org/2000/svg" width="48" height="48" version="1.1">
 <rect style="opacity:0.2" width="24" height="32" x="12" y="11" rx="2" ry="2"/>
 <rect width="24" height="32" x="12" y="10" rx="2" ry="2" style="fill:#8e8e8e"/>
 <rect style="opacity:0.2" width="40" height="32" x="4" y="7" rx="2" ry="2"/>
 <rect style="fill:#4f4f4f" width="40" height="32" x="4" y="6" rx="2" ry="2"/>
 <rect style="opacity:0.4" width="34" height="26" x="7" y="9" rx="0" ry="0"/>
 <rect style="opacity:0.1;fill:#ffffff" width="34" height="1" x="7" y="35"/>
 <path style="fill:#ffffff;opacity:0.1" d="M 6 6 C 4.892 6 4 6.892 4 8 L 4 9 C 4 7.892 4.892 7 6 7 L 42 7 C 43.108 7 44 7.892 44 9 L 44 8 C 44 6.892 43.108 6 42 6 L 6 6 z"/>
</svg>
